swiss/communes/0307.svg

<?xml version="1.0" encoding="UTF-8" standalone="no"?>
<svg
   xmlns:dc="http://purl.org/dc/elements/1.1/"
   xmlns:cc="http://web.resource.org/cc/"
   xmlns:rdf="http://www.w3.org/1999/02/22-rdf-syntax-ns#"
   xmlns:svg="http://www.w3.org/2000/svg"
   xmlns="http://www.w3.org/2000/svg"
   xmlns:xlink="http://www.w3.org/1999/xlink"
   xmlns:sodipodi="http://sodipodi.sourceforge.net/DTD/sodipodi-0.dtd"
   xmlns:inkscape="http://www.inkscape.org/namespaces/inkscape"
   height="763"
   width="603"
   version="1.0"
   id="svg20"
   sodipodi:version="0.32"
   inkscape:version="0.44.1"
   sodipodi:docname="Meikirch-coat of arms.svg"
   sodipodi:docbase="F:\Mis Documentos\Mis imágenes\Encyclopédie\Escudos de Suiza">
  <metadata
     id="metadata31">
    <rdf:RDF>
      <cc:Work
         rdf:about="">
        <dc:format>image/svg+xml</dc:format>
        <dc:type
           rdf:resource="http://purl.org/dc/dcmitype/StillImage" />
        <dc:date>07-AUG-2006</dc:date>
        <dc:creator>
          <cc:Agent>
            <dc:title>Jérôme BLUM (wagner51)</dc:title>
          </cc:Agent>
        </dc:creator>
        <cc:license
           rdf:resource="http://creativecommons.org/licenses/GPL/2.0/" />
        <dc:coverage />
        <dc:description>Gabarit pour le Projet:Blasons de WIkipédia</dc:description>
        <dc:subject>
          <rdf:Bag>
            <rdf:li>blason suisse modèle gabarit projet blasons</rdf:li>
          </rdf:Bag>
        </dc:subject>
        <dc:language>fr</dc:language>
        <dc:title>Gabrit d'un blason suisse</dc:title>
      </cc:Work>
      <cc:License
         rdf:about="http://creativecommons.org/licenses/GPL/2.0/">
        <cc:permits
           rdf:resource="http://web.resource.org/cc/Reproduction" />
        <cc:permits
           rdf:resource="http://web.resource.org/cc/Distribution" />
        <cc:requires
           rdf:resource="http://web.resource.org/cc/Notice" />
        <cc:permits
           rdf:resource="http://web.resource.org/cc/DerivativeWorks" />
        <cc:requires
           rdf:resource="http://web.resource.org/cc/ShareAlike" />
        <cc:requires
           rdf:resource="http://web.resource.org/cc/SourceCode" />
      </cc:License>
    </rdf:RDF>
  </metadata>
  <defs
     id="defs29">
    <linearGradient
       id="linearGradient2893">
      <stop
         style="stop-color:#ffffff;stop-opacity:0.3137255;"
         offset="0"
         id="stop2895" />
      <stop
         id="stop2897"
         offset="0.19"
         style="stop-color:#ffffff;stop-opacity:0.25098041;" />
      <stop
         style="stop-color:#6b6b6b;stop-opacity:0.1254902;"
         offset="0.60000002"
         id="stop2901" />
      <stop
         style="stop-color:#000000;stop-opacity:0.1254902;"
         offset="1"
         id="stop2899" />
    </linearGradient>
    <linearGradient
       id="linearGradient2955">
      <stop
         style="stop-color:white;stop-opacity:0;"
         offset="0"
         id="stop2965" />
      <stop
         style="stop-color:black;stop-opacity:0.64583331;"
         offset="1"
         id="stop2959" />
    </linearGradient>
    <radialGradient
       inkscape:collect="always"
       xlink:href="#linearGradient2893"
       id="radialGradient3236"
       gradientUnits="userSpaceOnUse"
       gradientTransform="matrix(1.215027,1.531577e-24,1.464684e-23,1.266667,-839.1924,-490.4894)"
       cx="858.04236"
       cy="579.93323"
       fx="858.04236"
       fy="579.93323"
       r="300" />
  </defs>
  <sodipodi:namedview
     inkscape:window-height="682"
     inkscape:window-width="1024"
     inkscape:pageshadow="2"
     inkscape:pageopacity="0.0"
     guidetolerance="10.0"
     gridtolerance="10.0"
     objecttolerance="10.0"
     borderopacity="1.0"
     bordercolor="#666666"
     pagecolor="#ffffff"
     id="base"
     inkscape:zoom="0.47549234"
     inkscape:cx="717.14463"
     inkscape:cy="401.74123"
     inkscape:window-x="-4"
     inkscape:window-y="-4"
     inkscape:current-layer="layer2"
     showgrid="true"
     showguides="true"
     inkscape:guide-bbox="true" />
  <desc
     id="desc22">Coat of Arms of Canton of Freiburg (Fribourg)</desc>
  <g
     inkscape:groupmode="layer"
     id="layer1"
     inkscape:label="Fond écu"
     sodipodi:insensitive="true">
    <path
       id="path1899"
       d="M 1.5,1.49998 L 1.5,460.3679 C 1.5,626.6785 135.81456,761.5 301.49999,761.5 C 467.18543,761.5 601.5,626.6785 601.5,460.3679 L 601.5,1.49998 L 1.5,1.49998 z "
       style="fill:#2b5df2;fill-opacity:1" />
  </g>
  <g
     inkscape:groupmode="layer"
     id="layer2"
     inkscape:label="Meubles"
     sodipodi:insensitive="true">
    <path
       style="fill:#e20909;fill-opacity:1;fill-rule:evenodd;stroke:black;stroke-width:4.16976023px;stroke-linecap:butt;stroke-linejoin:miter;stroke-opacity:1"
       d="M 180.61458,313.60504 L 521.33959,312.63415 L 582.91512,441.61046 L 179.64369,442.58135 L 180.61458,313.60504 z "
       id="path34169"
       sodipodi:nodetypes="ccccc" />
    <path
       style="fill:white;fill-opacity:1;fill-rule:evenodd;stroke:black;stroke-width:4.16976023px;stroke-linecap:butt;stroke-linejoin:miter;stroke-opacity:1"
       d="M 546.07199,610.91512 L 546.07199,439.95495 L 183.30283,439.95495 L 183.30283,610.91512 L 183.30283,439.95495 L 183.30283,248.14597 L 45.70073,248.14597 L 45.70073,310.69237 L 182.55748,310.69237 L 45.70073,310.69237 L 45.70073,610.91512 L 546.07199,610.91512 z "
       id="path30615"
       sodipodi:nodetypes="cccccccccccc" />
    <rect
       style="opacity:1;fill:white;fill-opacity:1;fill-rule:nonzero;stroke:black;stroke-width:4.0488286;stroke-miterlimit:4;stroke-dasharray:none;stroke-opacity:1"
       id="rect31502"
       width="50.158138"
       height="96.02562"
       x="218.68523"
       y="512.86523"
       rx="0"
       ry="0" />
    <rect
       ry="0"
       rx="0"
       y="512.86523"
       x="448.02206"
       height="96.02562"
       width="50.158138"
       id="rect32389"
       style="opacity:1;fill:white;fill-opacity:1;fill-rule:nonzero;stroke:black;stroke-width:4.0488286;stroke-miterlimit:4;stroke-dasharray:none;stroke-opacity:1" />
    <path
       style="fill:white;fill-opacity:1;fill-rule:evenodd;stroke:black;stroke-width:3.99449134px;stroke-linecap:butt;stroke-linejoin:miter;stroke-opacity:1"
       d="M 327.07191,497.73035 L 327.07191,567.22024 L 385.62386,567.22024 L 385.62386,497.73035 C 385.62386,463.6903 327.07191,463.59085 327.07191,497.73035 z "
       id="path32391"
       sodipodi:nodetypes="ccczz" />
    <path
       sodipodi:type="arc"
       style="opacity:1;fill:white;fill-opacity:1;fill-rule:nonzero;stroke:black;stroke-width:1;stroke-miterlimit:4;stroke-dasharray:none;stroke-opacity:1"
       id="path33278"
       sodipodi:cx="651.37628"
       sodipodi:cy="645.53772"
       sodipodi:rx="10.019361"
       sodipodi:ry="8.5459251"
       d="M 661.39564 645.53772 A 10.019361 8.5459251 0 1 1  641.35692,645.53772 A 10.019361 8.5459251 0 1 1  661.39564 645.53772 z"
       transform="matrix(4.145771,0,0,4.860598,-2585.955,-2820.753)" />
    <path
       style="fill:white;fill-opacity:1;fill-rule:evenodd;stroke:black;stroke-width:4.16976023px;stroke-linecap:butt;stroke-linejoin:miter;stroke-opacity:1"
       d="M 114.50178,442.03982 L 114.50178,475.3979"
       id="path33280" />
    <path
       style="fill:#e20909;fill-opacity:1;fill-rule:evenodd;stroke:black;stroke-width:4.16976023px;stroke-linecap:butt;stroke-linejoin:miter;stroke-opacity:1"
       d="M 213.46204,249.11685 L 176.61883,208.39014 L 114.30251,17.838268 L 51.986189,208.39014 L 17.08488,249.11685 L 213.46204,249.11685 z "
       id="path33282"
       sodipodi:nodetypes="cccccc" />
    <path
       sodipodi:type="star"
       style="opacity:1;fill:white;fill-opacity:1;fill-rule:nonzero;stroke:black;stroke-width:1;stroke-miterlimit:4;stroke-dasharray:none;stroke-opacity:1"
       id="path35056"
       sodipodi:sides="6"
       sodipodi:cx="697.81897"
       sodipodi:cy="594.19159"
       sodipodi:r1="37.895603"
       sodipodi:r2="18.947802"
       sodipodi:arg1="0.53515085"
       sodipodi:arg2="1.0587496"
       inkscape:flatsided="false"
       inkscape:rounded="0"
       inkscape:randomized="0"
       d="M 730.41645,613.51724 L 707.10268,610.70921 L 697.38121,632.08466 L 688.15614,610.49033 L 664.78372,612.75901 L 678.87243,593.97271 L 665.22149,574.86594 L 688.53526,577.67397 L 698.25673,556.29851 L 707.48179,577.89285 L 730.85422,575.62417 L 716.76551,594.41047 L 730.41645,613.51724 z "
       transform="matrix(3.678721,3.363939e-3,-2.912486e-3,3.63664,-2132.461,-1992.148)" />
  </g>
  <g
     inkscape:groupmode="layer"
     id="layer3"
     inkscape:label="Reflet final"
     style="display:inline"
     sodipodi:insensitive="true">
    <path
       style="fill:url(#radialGradient3236);fill-opacity:1"
       d="M 1.5,1.5 L 1.5,460.3679 C 1.5,626.67854 135.81454,761.5 301.49993,761.5 C 467.1854,761.5 601.5,626.67854 601.5,460.3679 L 601.5,1.5 L 1.5,1.5 z "
       id="path2346" />
  </g>
  <g
     inkscape:groupmode="layer"
     id="layer4"
     inkscape:label="Contour final"
     style="display:inline"
     sodipodi:insensitive="true">
    <path
       style="fill:none;fill-opacity:1;stroke:#000000;stroke-width:3;stroke-miterlimit:4;stroke-dasharray:none;stroke-opacity:1"
       d="M 1.5,1.5 L 1.5,460.36794 C 1.5,626.67854 135.81454,761.5 301.49993,761.5 C 467.1854,761.5 601.5,626.67854 601.5,460.36794 L 601.5,1.5 L 1.5,1.5 z "
       id="path3239" />
  </g>
</svg>

<svg xmlns="http://www.w3.org/2000/svg" xmlns:xlink="http://www.w3.org/1999/xlink" height="763" width="603" version="1.0"><defs><radialGradient xlink:href="#a" id="b" gradientUnits="userSpaceOnUse" gradientTransform="matrix(1.21503 0 0 1.26667 -839.192 -490.49)" cx="858.042" cy="579.933" fx="858.042" fy="579.933" r="300"/><linearGradient id="a"><stop style="stop-color:#fff;stop-opacity:.3137255" offset="0"/><stop offset=".19" style="stop-color:#fff;stop-opacity:.25098041"/><stop style="stop-color:#6b6b6b;stop-opacity:.1254902" offset=".6"/><stop style="stop-color:#000;stop-opacity:.1254902" offset="1"/></linearGradient></defs><path d="M1.5 1.5v458.868c0 166.31 134.315 301.132 300 301.132s300-134.822 300-301.132V1.5H1.5z" style="fill:#2b5df2;fill-opacity:1"/><path style="fill:#e20909;fill-opacity:1;fill-rule:evenodd;stroke:#000;stroke-width:4.16976023px;stroke-linecap:butt;stroke-linejoin:miter;stroke-opacity:1" d="m180.615 313.605 340.725-.97 61.575 128.975-403.271.971.97-128.976z"/><path style="fill:#fff;fill-opacity:1;fill-rule:evenodd;stroke:#000;stroke-width:4.16976023px;stroke-linecap:butt;stroke-linejoin:miter;stroke-opacity:1" d="M546.072 610.915v-170.96h-362.77v170.96-362.769H45.702v62.546h136.856H45.701v300.223h500.371z"/><rect style="opacity:1;fill:#fff;fill-opacity:1;fill-rule:nonzero;stroke:#000;stroke-width:4.0488286;stroke-miterlimit:4;stroke-dasharray:none;stroke-opacity:1" width="50.158" height="96.026" x="218.685" y="512.865" rx="0" ry="0"/><rect ry="0" rx="0" y="512.865" x="448.022" height="96.026" width="50.158" style="opacity:1;fill:#fff;fill-opacity:1;fill-rule:nonzero;stroke:#000;stroke-width:4.0488286;stroke-miterlimit:4;stroke-dasharray:none;stroke-opacity:1"/><path style="fill:#fff;fill-opacity:1;fill-rule:evenodd;stroke:#000;stroke-width:3.99449134px;stroke-linecap:butt;stroke-linejoin:miter;stroke-opacity:1" d="M327.072 497.73v69.49h58.552v-69.49c0-34.04-58.552-34.14-58.552 0z"/><path style="opacity:1;fill:#fff;fill-opacity:1;fill-rule:nonzero;stroke:#000;stroke-width:1;stroke-miterlimit:4;stroke-dasharray:none;stroke-opacity:1" d="M661.396 645.538a10.02 8.546 0 1 1-20.04 0 10.02 8.546 0 1 1 20.04 0z" transform="matrix(4.14577 0 0 4.8606 -2585.955 -2820.753)"/><path style="fill:#fff;fill-opacity:1;fill-rule:evenodd;stroke:#000;stroke-width:4.16976023px;stroke-linecap:butt;stroke-linejoin:miter;stroke-opacity:1" d="M114.502 442.04v33.358"/><path style="fill:#e20909;fill-opacity:1;fill-rule:evenodd;stroke:#000;stroke-width:4.16976023px;stroke-linecap:butt;stroke-linejoin:miter;stroke-opacity:1" d="m213.462 249.117-36.843-40.727-62.316-190.552L51.986 208.39l-34.901 40.727h196.377z"/><path style="opacity:1;fill:#fff;fill-opacity:1;fill-rule:nonzero;stroke:#000;stroke-width:1;stroke-miterlimit:4;stroke-dasharray:none;stroke-opacity:1" d="m730.416 613.517-23.313-2.808-9.722 21.376-9.225-21.595-23.372 2.269 14.088-18.786-13.65-19.107 23.313 2.808 9.722-21.375 9.225 21.594 23.372-2.269-14.088 18.786 13.65 19.107z" transform="matrix(3.67872 .00336 -.00291 3.63664 -2132.461 -1992.148)"/><g style="display:inline"><path style="fill:url(#b);fill-opacity:1" d="M1.5 1.5v458.868c0 166.31 134.315 301.132 300 301.132s300-134.821 300-301.132V1.5H1.5z"/></g><g style="display:inline"><path style="fill:none;fill-opacity:1;stroke:#000;stroke-width:3;stroke-miterlimit:4;stroke-dasharray:none;stroke-opacity:1" d="M1.5 1.5v458.868c0 166.31 134.315 301.132 300 301.132s300-134.821 300-301.132V1.5H1.5z"/></g></svg>
